src/assets/icons/payment-discover.svg

<?xml version="1.0" encoding="UTF-8"?>
<svg width="30px" height="30px" viewBox="0 0 30 30" version="1.1" xmlns="http://www.w3.org/2000/svg" xmlns:xlink="http://www.w3.org/1999/xlink">
    <!-- Generator: Sketch 55.2 (78181) - https://sketchapp.com -->
    <title>Pagamento / Discover</title>
    <desc>Created with Sketch.</desc>
    <defs>
        <rect id="path-1" x="0" y="4" width="30" height="22.5" rx="2"></rect>
    </defs>
    <g id="Pagamento-/-Discover" stroke="none" stroke-width="1" fill="none" fill-rule="evenodd">
        <mask id="mask-2" fill="white">
            <use xlink:href="#path-1"></use>
        </mask>
        <use id="Fundo" fill="#F3F2F2" xlink:href="#path-1"></use>
        <g id="Discover" mask="url(#mask-2)">
            <g transform="translate(2.500000, 11.000000)">
                <ellipse id="Oval" fill="#F26E21" fill-rule="evenodd" cx="13.2893333" cy="2.11932203" rx="2.07866667" ry="2.11389831"></ellipse>
                <polygon id="Path" fill="#000000" fill-rule="evenodd" points="5.70733333 7.85986441 5.70733333 5.60237288 7.223 7.21498305 7.223 5.74589831 7.5368 5.74589831 7.5368 7.98840678 6.02113333 6.37959322 6.02113333 7.85952542 5.70733333 7.85952542"></polygon>
                <polygon id="Path" fill="#000000" fill-rule="evenodd" points="9.18193333 6.04583051 8.34853333 6.04583051 8.34853333 6.55369492 9.15773333 6.55369492 9.15773333 6.85376271 8.34853333 6.85376271 8.34853333 7.56 9.18193333 7.56 9.18193333 7.85986441 8.03493333 7.85986441 8.03493333 5.74623729 9.18193333 5.74623729 9.18193333 6.04583051"></polygon>
                <polygon id="Path" fill="#000000" fill-rule="evenodd" points="10.1672667 6.04583051 10.1672667 7.85966102 9.85346667 7.85966102 9.85346667 6.04583051 9.3758 6.04583051 9.3758 5.7459661 10.644 5.7459661 10.644 6.04583051"></polygon>
                <polygon id="Path" fill="#000000" fill-rule="evenodd" points="11.1500667 5.74623729 11.6914 7.15898305 12.2571333 5.64352542 12.7982 7.15898305 13.3729333 5.74623729 13.7136667 5.74623729 12.7847333 7.99410169 12.2501333 6.49640678 11.6928667 7.99566102 10.8095333 5.74630508"></polygon>
                <path d="M13.7738,6.79362712 C13.7738,6.49579661 13.8813333,6.24033898 14.0956,6.02698305 C14.3091333,5.81335593 14.5660667,5.70657627 14.8659333,5.70657627 C15.162,5.70657627 15.416,5.81416949 15.6277333,6.02949153 C15.8405333,6.24515254 15.9465333,6.50359322 15.9465333,6.8060339 C15.9465333,7.10969492 15.8398,7.36766102 15.6264667,7.57952542 C15.4119333,7.79213559 15.153,7.89864407 14.8496667,7.89864407 C14.5815333,7.89864407 14.3402667,7.804 14.1267333,7.61525424 C13.8915333,7.4060339 13.7738,7.1320678 13.7738,6.79362712 Z M14.0903333,6.79694915 C14.0903333,7.03030508 14.1676667,7.22210169 14.3218,7.37281356 C14.4752,7.52352542 14.6526,7.59857627 14.8538667,7.59857627 C15.0716667,7.59857627 15.2557333,7.5219661 15.4056667,7.36901695 C15.5556,7.2140339 15.6304,7.02528814 15.6304,6.80277966 C15.6304,6.57728814 15.5563333,6.38854237 15.4081333,6.23654237 C15.2609333,6.08332203 15.0788667,6.00671186 14.8616,6.00671186 C14.6453333,6.00671186 14.4627333,6.08332203 14.3140667,6.23654237 C14.1649333,6.38725424 14.0903333,6.57444068 14.0903333,6.79694915 Z" id="Shape" fill="#000000" fill-rule="nonzero"></path>
                <path d="M17.0451333,6.95905085 L17.6887333,7.85986441 L17.3050667,7.85986441 L16.7114,6.99484746 L16.6548,6.99484746 L16.6548,7.85986441 L16.341,7.85986441 L16.341,5.74623729 L16.7084667,5.74623729 C16.9833333,5.74623729 17.1814,5.79877966 17.3036667,5.90379661 C17.4384,6.02047458 17.5057333,6.17471186 17.5057333,6.36650847 C17.5057333,6.51620339 17.4636,6.64481356 17.379,6.75233898 C17.2945333,6.85986441 17.1835333,6.92908475 17.0451333,6.95905085 Z M16.6549333,6.71674576 L16.7542,6.71674576 C17.0512667,6.71674576 17.2,6.60128814 17.2,6.37044068 C17.2,6.1540339 17.0555333,6.0459661 16.7664667,6.0459661 L16.6549333,6.0459661 L16.6549333,6.71674576 L16.6549333,6.71674576 Z" id="Shape" fill="#000000" fill-rule="nonzero"></path>
                <polygon id="Path" fill="#000000" fill-rule="evenodd" points="18.3148 6.58942373 19.1238 5.74616949 19.5426 5.74616949 18.6029333 6.70332203 19.5481333 7.85986441 19.1280667 7.85986441 18.3794667 6.91945763 18.3148667 6.98542373 18.3148667 7.85986441 18.0010667 7.85986441 18.0010667 5.74623729 18.3148667 5.74623729 18.3148667 6.58942373"></polygon>
                <g id="Group" stroke-width="1" fill="none" fill-rule="evenodd">
                    <path d="M2.0938,3.13152542 C1.84886667,3.35450847 1.5328,3.45118644 1.03086667,3.45118644 L0.8226,3.45118644 L0.8226,0.797220339 L1.03086667,0.797220339 C1.53273333,0.797220339 1.83633333,0.887525424 2.0938,1.12189831 C2.3622,1.36264407 2.52233333,1.73532203 2.52233333,2.12040678 C2.52233333,2.50569492 2.3622,2.89152542 2.0938,3.13152542 L2.0938,3.13152542 Z M1.18653333,0.117559322 L0.0460666667,0.117559322 L0.0460666667,4.13023729 L1.1808,4.13023729 C1.783,4.13023729 2.21826667,3.98664407 2.6002,3.66705085 C3.0532,3.2880678 3.32213333,2.71654237 3.32213333,2.12569492 C3.32206667,0.941016949 2.44453333,0.117559322 1.18653333,0.117559322 L1.18653333,0.117559322 Z" id="Shape" fill="#0B161F" fill-rule="nonzero"></path>
                    <polyline id="Path" fill="#0B161F" points="3.68 4.13023729 4.45533333 4.13023729 4.45533333 0.117559322 3.68 0.117559322 3.68 4.13023729"></polyline>
                    <path d="M6.3534,1.65688136 C5.8874,1.48257627 5.7502,1.3679322 5.7502,1.15233898 C5.7502,0.899389831 5.9944,0.706847458 6.32893333,0.706847458 C6.56166667,0.706847458 6.75226667,0.802983051 6.95606667,1.03105085 L7.36093333,0.496271186 C7.0272,0.201016949 6.62753333,0.050779661 6.19153333,0.050779661 C5.48806667,0.050779661 4.95073333,0.54420339 4.95073333,1.19918644 C4.95073333,1.75349153 5.20093333,2.0360678 5.92933333,2.30142373 C6.23366667,2.40922034 6.38833333,2.48101695 6.46613333,2.5299661 C6.62106667,2.63247458 6.69913333,2.77627119 6.69913333,2.94474576 C6.69913333,3.27023729 6.44246667,3.51044068 6.09593333,3.51044068 C5.726,3.51044068 5.42793333,3.32427119 5.2488,2.97518644 L4.7484,3.46298305 C5.1056,3.99166102 5.5352,4.22732203 6.12633333,4.22732203 C6.93153333,4.22732203 7.49806698,3.68494915 7.49806698,2.90922034 C7.4984,2.27105085 7.23646667,1.98210169 6.3534,1.65688136" id="Path" fill="#0B161F"></path>
                    <path d="M7.74286667,2.12569492 C7.74286667,3.30630508 8.66186667,4.22081356 9.84326667,4.22081356 C10.1775333,4.22081356 10.4634,4.15410169 10.8158667,3.98664407 L10.8158667,3.06508475 C10.5053333,3.37837288 10.2306667,3.50447458 9.87866667,3.50447458 C9.09713333,3.50447458 8.54213333,2.93267797 8.54213333,2.12013559 C8.54213333,1.35023729 9.11486667,0.742169492 9.84326667,0.742169492 C10.2124667,0.742169492 10.4933333,0.874305085 10.8158667,1.19349153 L10.8158667,0.272610169 C10.4761333,0.0985762712 10.195,0.026779661 9.86073333,0.026779661 C8.68573333,0.0270508475 7.74286667,0.95979661 7.74286667,2.12569492" id="Path" fill="#0B161F"></path>
                    <polyline id="Path" fill="#0B161F" points="17.1037333 2.81294915 16.0415333 0.117559322 15.1944 0.117559322 16.8834667 4.23301695 17.3005333 4.23301695 19.0192667 0.117559322 18.1778667 0.117559322 17.1037333 2.81294915"></polyline>
                    <polyline id="Path" fill="#0B161F" points="19.3717333 4.13023729 21.5728667 4.13023729 21.5728667 3.45118644 20.1472667 3.45118644 20.1472667 2.36698305 21.5182667 2.36698305 21.5182667 1.68786441 20.1472667 1.68786441 20.1472667 0.797152542 21.5728667 0.797152542 21.5728667 0.117559322 19.3717333 0.117559322 19.3717333 4.13023729"></polyline>
                    <path d="M23.0875333,1.96461017 L22.8615333,1.96461017 L22.8615333,0.748474576 L23.0997333,0.748474576 C23.5839333,0.748474576 23.8466,0.953966102 23.8466,1.34433898 C23.8466,1.74718644 23.5839333,1.96461017 23.0875333,1.96461017 L23.0875333,1.96461017 Z M24.6446,1.30176271 C24.6446,0.550101695 24.132,0.117559322 23.2364667,0.117559322 L22.0852667,0.117559322 L22.0852667,4.13023729 L22.8613333,4.13023729 L22.8613333,2.51762712 L22.9631333,2.51762712 L24.0362667,4.13023729 L24.9909333,4.13023729 L23.7374667,2.43972881 C24.3230667,2.31952542 24.6446,1.9159322 24.6446,1.30176271 L24.6446,1.30176271 Z" id="Shape" fill="#0B161F" fill-rule="nonzero"></path>
                </g>
            </g>
        </g>
    </g>
</svg>

<svg width="30" height="30" viewBox="0 0 30 30" xmlns="http://www.w3.org/2000/svg" xmlns:xlink="http://www.w3.org/1999/xlink"><title>Pagamento / Discover</title><defs><rect id="a" y="4" width="30" height="22.5" rx="2"/></defs><g fill="none" fill-rule="evenodd"><mask id="b" fill="#fff"><use xlink:href="#a"/></mask><use fill="#F3F2F2" xlink:href="#a"/><g mask="url(#b)"><g transform="translate(2.5 11)"><ellipse fill="#F26E21" cx="13.289" cy="2.119" rx="2.079" ry="2.114"/><path fill="#000" d="M5.707 7.86V5.602l1.516 1.613v-1.47h.314v2.243L6.02 6.38v1.48h-.314zM9.182 6.046h-.833v.508h.809v.3h-.81v.706h.834v.3H8.035V5.746h1.147v.3zM10.167 6.046V7.86h-.314V6.046h-.477v-.3h1.268v.3zM11.15 5.746l.541 1.413.566-1.515.541 1.515.575-1.413h.34l-.928 2.248-.535-1.498-.557 1.5-.883-2.25z"/><path d="M13.774 6.794c0-.298.107-.554.322-.767.213-.214.47-.32.77-.32.296 0 .55.107.762.322.213.216.319.475.319.777 0 .304-.107.562-.32.774-.215.212-.474.319-.777.319-.268 0-.51-.095-.723-.284a1.048 1.048 0 0 1-.353-.821zm.316.003a.77.77 0 0 0 .232.576c.153.15.33.226.532.226a.743.743 0 0 0 .552-.23.784.784 0 0 0 .224-.566.78.78 0 0 0-.222-.566.727.727 0 0 0-.546-.23.733.733 0 0 0-.548.23.766.766 0 0 0-.224.56zM17.045 6.96l.644.9h-.384l-.594-.865h-.056v.865h-.314V5.746h.367c.275 0 .473.053.596.158.134.116.202.27.202.463 0 .15-.042.278-.127.385a.562.562 0 0 1-.334.207zm-.39-.243h.1c.296 0 .445-.116.445-.347 0-.216-.144-.324-.434-.324h-.111v.67z" fill="#000" fill-rule="nonzero"/><path fill="#000" d="M18.315 6.59l.809-.844h.419l-.94.957.945 1.157h-.42l-.749-.94-.064.065v.875H18V5.746h.314v.843z"/><g fill="#0B161F"><path d="M2.094 3.132c-.245.223-.561.32-1.063.32H.823V.796h.208c.502 0 .805.09 1.063.325.268.24.428.613.428.998 0 .386-.16.772-.428 1.012zM1.187.118H.047V4.13H1.18c.602 0 1.037-.143 1.42-.463.452-.379.721-.95.721-1.541C3.322.94 2.445.118 1.187.118z" fill-rule="nonzero"/><path d="M3.68 4.13h.775V.118H3.68V4.13M6.353 1.657c-.466-.174-.603-.29-.603-.505 0-.253.244-.445.579-.445.233 0 .423.096.627.324l.405-.535A1.73 1.73 0 0 0 6.19.051c-.703 0-1.24.493-1.24 1.148 0 .554.25.837.978 1.102.305.108.46.18.537.229a.482.482 0 0 1 .233.415c0 .325-.257.565-.603.565-.37 0-.668-.186-.847-.535l-.5.488c.357.529.786.764 1.377.764.806 0 1.372-.542 1.372-1.318 0-.638-.262-.927-1.145-1.252M7.743 2.126a2.07 2.07 0 0 0 2.1 2.095c.335 0 .62-.067.973-.234v-.922c-.31.313-.585.44-.937.44-.782 0-1.337-.572-1.337-1.385 0-.77.573-1.378 1.301-1.378.37 0 .65.132.973.451v-.92A1.968 1.968 0 0 0 9.86.027a2.101 2.101 0 0 0-2.118 2.099M17.104 2.813L16.042.118h-.848l1.69 4.115h.417L19.019.118h-.841l-1.074 2.695M19.372 4.13h2.2v-.679h-1.425V2.367h1.371v-.68h-1.37v-.89h1.425v-.68h-2.201V4.13"/><path d="M23.088 1.965h-.226V.748h.238c.484 0 .747.206.747.596 0 .403-.263.62-.76.62zm1.557-.663c0-.752-.513-1.184-1.409-1.184h-1.15V4.13h.775V2.518h.102l1.073 1.612h.955l-1.254-1.69c.586-.12.908-.524.908-1.138z" fill-rule="nonzero"/></g></g></g></g></svg>
